X: 42166
T: Water, The
R: slide
M: 12/8
K: Gdorian
|:"Gm" G2 d dcd G2 d c2 d|"F" F2 c cAc d2 c ~A2 F|
"Gm" G2 d dcd G2 d f2 g|"F"f2 d dcA "Gm"G3 G3:|
|:"Gm" g2 d dcd g2 a b2 g|"F"f2 c cAc f2 g agf|
"Gm"g2 d dcd g2 a b2 g|"F"f2 c cAF "Gm" G3 G3:|

